svg/proton-wallet.svg

<svg xmlns="http://www.w3.org/2000/svg" fill="none" viewBox="0.11 2.67 35.78 31.01"> <g clip-path="url(#clip0_4501_1103)"> <mask height="32" id="mask0_4501_1103" maskUnits="userSpaceOnUse" style="mask-type:alpha" width="36" x="0" y="2"> <path clip-rule="evenodd" d="M0.111097 29.9055C0.111097 31.9904 1.80126 33.6806 3.88618 33.6806L32.1137 33.6224C34.1986 33.6224 35.8888 31.9322 35.8888 29.8473V17.767C35.8888 9.42734 29.1281 2.66669 20.7885 2.66669L3.88618 2.72493C1.80126 2.72493 0.111096 4.41509 0.111096 6.50001L0.111097 18.3358H0.111023V28.7415H0.111097V29.9055ZM0.111097 28.7415H7.57333C10.2624 28.7415 12.443 26.4118 12.443 23.5386C12.443 20.6655 10.2625 18.3358 7.57333 18.3358L0.111097 18.3358L0.111097 28.7415ZM7.19815 20.787C8.7271 20.787 9.96655 22.0265 9.96655 23.5554C9.96655 25.0844 8.7271 26.3238 7.19815 26.3238C5.66921 26.3238 4.42976 25.0844 4.42976 23.5554C4.42976 22.0265 5.66921 20.787 7.19815 20.787Z" fill="white" fill-rule="evenodd"/> </mask> <g mask="url(#mask0_4501_1103)"> <path d="M3.8912 33.6224C1.80628 33.6224 0.116119 31.9322 0.116119 29.8473L0.116118 6.44177C0.116118 4.35685 1.80628 2.66669 3.8912 2.66669L20.7884 2.66669C29.1281 2.66669 35.8887 9.42734 35.8887 17.767L35.8887 29.8473C35.8887 31.9322 34.1986 33.6224 32.1137 33.6224L3.8912 33.6224Z" fill="url(#paint0_linear_4501_1103)"/> <path d="M3.8862 33.7C1.80128 33.7 0.111116 32.0099 0.111116 29.925L0.111115 7.7778L17.0133 7.7778C23.2681 7.7778 28.3386 12.8483 28.3386 19.1031V33.7H3.8862Z" fill="#6D4AFF"/> <path d="M3.8862 33.7C1.80128 33.7 0.111116 32.0099 0.111116 29.925L0.111115 7.7778L17.0133 7.7778C23.2681 7.7778 28.3386 12.8483 28.3386 19.1031V33.7H3.8862Z" fill="url(#paint1_linear_4501_1103)" fill-opacity="0.9"/> <path d="M5.465 33.6223L11.2249 27.0789L0.111115 28.4631V29.8473C0.111115 31.9322 1.80128 33.6223 3.8862 33.6223H5.465Z" fill="#FFBB93"/> <path clip-rule="evenodd" d="M7.57333 28.7415C10.2624 28.7415 12.443 26.4118 12.443 23.5386C12.443 20.6655 10.2625 18.3358 7.57333 18.3358L0.111023 18.3358V28.7415H7.57333ZM9.96655 23.5554C9.96655 22.0265 8.72709 20.787 7.19815 20.787C5.66921 20.787 4.42976 22.0265 4.42976 23.5554C4.42976 25.0844 5.66921 26.3238 7.19815 26.3238C8.7271 26.3238 9.96655 25.0844 9.96655 23.5554Z" fill="white" fill-rule="evenodd"/> </g> </g> <defs> <linearGradient gradientUnits="userSpaceOnUse" id="paint0_linear_4501_1103" x1="-4.37881" x2="39.88" y1="6.26929" y2="23.5099"> <stop stop-color="#957AFD"/> <stop offset="1" stop-color="#FFC6C6"/> </linearGradient> <linearGradient gradientUnits="userSpaceOnUse" id="paint1_linear_4501_1103" x1="26.7433" x2="13.0154" y1="11.7575" y2="39.6914"> <stop offset="0.149916" stop-color="#FA528E" stop-opacity="0"/> <stop offset="0.720842" stop-color="#FF8065"/> <stop offset="1" stop-color="#FFA51F"/> </linearGradient> </defs> </svg>

<svg xmlns="http://www.w3.org/2000/svg" fill="none" viewBox="0.11 2.67 35.78 31.01"><g clip-path="url(#clip0_4501_1103)"><mask id="a" width="36" height="32" x="0" y="2" maskUnits="userSpaceOnUse" style="mask-type:alpha"><path fill="#fff" fill-rule="evenodd" d="M.111 29.906a3.775 3.775 0 0 0 3.775 3.775l28.228-.059a3.775 3.775 0 0 0 3.775-3.775v-12.08c0-8.34-6.76-15.1-15.1-15.1l-16.903.058A3.775 3.775 0 0 0 .111 6.5v23.405m0-1.165h7.462c2.69 0 4.87-2.33 4.87-5.202 0-2.873-2.18-5.203-4.87-5.203H.111zm7.087-7.954a2.768 2.768 0 1 1 0 5.537 2.768 2.768 0 0 1 0-5.537" clip-rule="evenodd"/></mask><g mask="url(#a)"><path fill="url(#b)" d="M3.891 33.622a3.775 3.775 0 0 1-3.775-3.775V6.442a3.775 3.775 0 0 1 3.775-3.775h16.897c8.34 0 15.1 6.76 15.1 15.1v12.08a3.775 3.775 0 0 1-3.774 3.775z"/><path fill="#6D4AFF" d="M3.886 33.7a3.775 3.775 0 0 1-3.775-3.775V7.778h16.902c6.255 0 11.326 5.07 11.326 11.325V33.7z"/><path fill="url(#c)" fill-opacity=".9" d="M3.886 33.7a3.775 3.775 0 0 1-3.775-3.775V7.778h16.902c6.255 0 11.326 5.07 11.326 11.325V33.7z"/><path fill="#FFBB93" d="m5.465 33.622 5.76-6.543L.11 28.463v1.384a3.775 3.775 0 0 0 3.775 3.775z"/><path fill="#fff" fill-rule="evenodd" d="M7.573 28.742c2.69 0 4.87-2.33 4.87-5.203s-2.18-5.203-4.87-5.203H.111v10.406zm2.394-5.187a2.768 2.768 0 1 0-5.537 0 2.768 2.768 0 0 0 5.537 0" clip-rule="evenodd"/></g></g><defs><linearGradient id="b" x1="-4.379" x2="39.88" y1="6.269" y2="23.51" gradientUnits="userSpaceOnUse"><stop stop-color="#957AFD"/><stop offset="1" stop-color="#FFC6C6"/></linearGradient><linearGradient id="c" x1="26.743" x2="13.015" y1="11.758" y2="39.691" gradientUnits="userSpaceOnUse"><stop offset=".15" stop-color="#FA528E" stop-opacity="0"/><stop offset=".721" stop-color="#FF8065"/><stop offset="1" stop-color="#FFA51F"/></linearGradient></defs></svg>
